images/50543913.svg

<?xml version="1.0" encoding="UTF-8"?>
<svg xmlns="http://www.w3.org/2000/svg" xmlns:xlink="http://www.w3.org/1999/xlink" width="300pt" height="300pt" viewBox="0 0 300 300" version="1.1">
<defs>
<g>
<symbol overflow="visible" id="glyph0-0">
<path style="stroke:none;" d="M 0.453125 1.59375 L 0.453125 -6.34375 L 4.953125 -6.34375 L 4.953125 1.59375 Z M 0.953125 1.09375 L 4.453125 1.09375 L 4.453125 -5.84375 L 0.953125 -5.84375 Z M 0.953125 1.09375 "/>
</symbol>
<symbol overflow="visible" id="glyph0-1">
<path style="stroke:none;" d="M 0.890625 -6.5625 L 4.65625 -6.5625 L 4.65625 -5.8125 L 1.765625 -5.8125 L 1.765625 -3.875 L 4.375 -3.875 L 4.375 -3.140625 L 1.765625 -3.140625 L 1.765625 0 L 0.890625 0 Z M 0.890625 -6.5625 "/>
</symbol>
<symbol overflow="visible" id="glyph0-2">
<path style="stroke:none;" d="M 0.890625 -6.5625 L 2.078125 -6.5625 L 4.984375 -1.078125 L 4.984375 -6.5625 L 5.84375 -6.5625 L 5.84375 0 L 4.65625 0 L 1.75 -5.484375 L 1.75 0 L 0.890625 0 Z M 0.890625 -6.5625 "/>
</symbol>
<symbol overflow="visible" id="glyph0-3">
<path style="stroke:none;" d="M 0.890625 -6.5625 L 1.765625 -6.5625 L 1.765625 -3.875 L 5 -3.875 L 5 -6.5625 L 5.890625 -6.5625 L 5.890625 0 L 5 0 L 5 -3.125 L 1.765625 -3.125 L 1.765625 0 L 0.890625 0 Z M 0.890625 -6.5625 "/>
</symbol>
</g>
</defs>
<g id="surface27965">
<rect x="0" y="0" width="300" height="300" style="fill:rgb(100%,100%,100%);fill-opacity:1;stroke:none;"/>
<path style="fill:none;stroke-width:1.2;stroke-linecap:butt;stroke-linejoin:miter;stroke:rgb(20%,80%,80%);stroke-opacity:1;stroke-miterlimit:10;" d="M 104.648438 88.730469 L 114.378906 95.621094 "/>
<path style="fill:none;stroke-width:1.2;stroke-linecap:butt;stroke-linejoin:miter;stroke:rgb(0%,0%,0%);stroke-opacity:1;stroke-miterlimit:10;" d="M 114.378906 95.621094 L 124.113281 102.511719 "/>
<path style=" stroke:none;fill-rule:nonzero;fill:rgb(100%,100%,100%);fill-opacity:1;" d="M 98.648438 83.230469 L 104.648438 83.230469 L 104.648438 94.230469 L 98.648438 94.230469 Z M 98.648438 83.230469 "/>
<g style="fill:rgb(20%,80%,80%);fill-opacity:1;">
  <use xlink:href="#glyph0-1" x="98.648438" y="91.893555"/>
</g>
<path style="fill:none;stroke-width:1.2;stroke-linecap:butt;stroke-linejoin:miter;stroke:rgb(0%,0%,0%);stroke-opacity:1;stroke-miterlimit:10;" d="M 124.113281 102.511719 L 145.777344 92.546875 "/>
<path style="fill:none;stroke-width:1.2;stroke-linecap:butt;stroke-linejoin:miter;stroke:rgb(0%,0%,0%);stroke-opacity:1;stroke-miterlimit:10;" d="M 128.621094 106.613281 L 145.953125 98.640625 "/>
<path style="fill:none;stroke-width:1.2;stroke-linecap:butt;stroke-linejoin:miter;stroke:rgb(0%,0%,0%);stroke-opacity:1;stroke-miterlimit:10;" d="M 121.910156 126.253906 L 124.113281 102.511719 "/>
<path style="fill:none;stroke-width:1.2;stroke-linecap:butt;stroke-linejoin:miter;stroke:rgb(0%,0%,0%);stroke-opacity:1;stroke-miterlimit:10;" d="M 145.777344 92.546875 L 165.238281 106.328125 "/>
<path style="fill:none;stroke-width:1.2;stroke-linecap:butt;stroke-linejoin:miter;stroke:rgb(0%,0%,0%);stroke-opacity:1;stroke-miterlimit:10;" d="M 165.238281 106.328125 L 163.035156 130.070312 "/>
<path style="fill:none;stroke-width:1.2;stroke-linecap:butt;stroke-linejoin:miter;stroke:rgb(0%,0%,0%);stroke-opacity:1;stroke-miterlimit:10;" d="M 159.429688 108.183594 L 157.667969 127.179688 "/>
<path style="fill:none;stroke-width:1.2;stroke-linecap:butt;stroke-linejoin:miter;stroke:rgb(0%,0%,0%);stroke-opacity:1;stroke-miterlimit:10;" d="M 163.035156 130.070312 L 141.371094 140.035156 "/>
<path style="fill:none;stroke-width:1.2;stroke-linecap:butt;stroke-linejoin:miter;stroke:rgb(0%,0%,0%);stroke-opacity:1;stroke-miterlimit:10;" d="M 163.035156 130.070312 L 182.496094 143.851562 "/>
<path style="fill:none;stroke-width:1.2;stroke-linecap:butt;stroke-linejoin:miter;stroke:rgb(0%,0%,0%);stroke-opacity:1;stroke-miterlimit:10;" d="M 141.371094 140.035156 L 121.910156 126.253906 "/>
<path style="fill:none;stroke-width:1.2;stroke-linecap:butt;stroke-linejoin:miter;stroke:rgb(0%,0%,0%);stroke-opacity:1;stroke-miterlimit:10;" d="M 142.667969 134.078125 L 127.097656 123.054688 "/>
<path style="fill:none;stroke-width:1.2;stroke-linecap:butt;stroke-linejoin:miter;stroke:rgb(0%,0%,0%);stroke-opacity:1;stroke-miterlimit:10;" d="M 182.496094 143.851562 L 193.328125 138.867188 "/>
<path style="fill:none;stroke-width:1.2;stroke-linecap:butt;stroke-linejoin:miter;stroke:rgb(0%,0%,100%);stroke-opacity:1;stroke-miterlimit:10;" d="M 193.328125 138.867188 L 204.160156 133.886719 "/>
<path style="fill:none;stroke-width:1.2;stroke-linecap:butt;stroke-linejoin:miter;stroke:rgb(0%,0%,0%);stroke-opacity:1;stroke-miterlimit:10;" d="M 187.007812 147.953125 L 195.675781 143.964844 "/>
<path style="fill:none;stroke-width:1.2;stroke-linecap:butt;stroke-linejoin:miter;stroke:rgb(0%,0%,100%);stroke-opacity:1;stroke-miterlimit:10;" d="M 195.675781 143.964844 L 204.339844 139.980469 "/>
<path style="fill:none;stroke-width:1.2;stroke-linecap:butt;stroke-linejoin:miter;stroke:rgb(0%,0%,0%);stroke-opacity:1;stroke-miterlimit:10;" d="M 180.292969 167.59375 L 182.496094 143.851562 "/>
<path style="fill:none;stroke-width:1.2;stroke-linecap:butt;stroke-linejoin:miter;stroke:rgb(0%,0%,100%);stroke-opacity:1;stroke-miterlimit:10;" d="M 204.160156 133.886719 L 213.890625 140.777344 "/>
<path style="fill:none;stroke-width:1.2;stroke-linecap:butt;stroke-linejoin:miter;stroke:rgb(0%,0%,0%);stroke-opacity:1;stroke-miterlimit:10;" d="M 213.890625 140.777344 L 223.625 147.667969 "/>
<path style=" stroke:none;fill-rule:nonzero;fill:rgb(100%,100%,100%);fill-opacity:1;" d="M 201.160156 128.386719 L 208.160156 128.386719 L 208.160156 139.386719 L 201.160156 139.386719 Z M 201.160156 128.386719 "/>
<g style="fill:rgb(0%,0%,100%);fill-opacity:1;">
  <use xlink:href="#glyph0-2" x="201.160156" y="137.049805"/>
</g>
<path style="fill:none;stroke-width:1.2;stroke-linecap:butt;stroke-linejoin:miter;stroke:rgb(0%,0%,0%);stroke-opacity:1;stroke-miterlimit:10;" d="M 223.625 147.667969 L 221.421875 171.410156 "/>
<path style="fill:none;stroke-width:1.2;stroke-linecap:butt;stroke-linejoin:miter;stroke:rgb(0%,0%,0%);stroke-opacity:1;stroke-miterlimit:10;" d="M 228.988281 150.558594 L 227.226562 169.554688 "/>
<path style="fill:none;stroke-width:1.2;stroke-linecap:butt;stroke-linejoin:miter;stroke:rgb(0%,0%,0%);stroke-opacity:1;stroke-miterlimit:10;" d="M 245.289062 137.703125 L 223.625 147.667969 "/>
<path style="fill:none;stroke-width:1.2;stroke-linecap:butt;stroke-linejoin:miter;stroke:rgb(0%,0%,0%);stroke-opacity:1;stroke-miterlimit:10;" d="M 221.421875 171.410156 L 210.589844 176.394531 "/>
<path style="fill:none;stroke-width:1.2;stroke-linecap:butt;stroke-linejoin:miter;stroke:rgb(0%,0%,100%);stroke-opacity:1;stroke-miterlimit:10;" d="M 210.589844 176.394531 L 199.757812 181.375 "/>
<path style="fill:none;stroke-width:1.2;stroke-linecap:butt;stroke-linejoin:miter;stroke:rgb(0%,0%,0%);stroke-opacity:1;stroke-miterlimit:10;" d="M 221.421875 171.410156 L 240.882812 185.191406 "/>
<path style="fill:none;stroke-width:1.2;stroke-linecap:butt;stroke-linejoin:miter;stroke:rgb(0%,0%,100%);stroke-opacity:1;stroke-miterlimit:10;" d="M 199.757812 181.375 L 190.023438 174.484375 "/>
<path style="fill:none;stroke-width:1.2;stroke-linecap:butt;stroke-linejoin:miter;stroke:rgb(0%,0%,0%);stroke-opacity:1;stroke-miterlimit:10;" d="M 190.023438 174.484375 L 180.292969 167.59375 "/>
<path style="fill:none;stroke-width:1.2;stroke-linecap:butt;stroke-linejoin:miter;stroke:rgb(0%,0%,100%);stroke-opacity:1;stroke-miterlimit:10;" d="M 201.050781 175.417969 L 193.265625 169.90625 "/>
<path style="fill:none;stroke-width:1.2;stroke-linecap:butt;stroke-linejoin:miter;stroke:rgb(0%,0%,0%);stroke-opacity:1;stroke-miterlimit:10;" d="M 193.265625 169.90625 L 185.484375 164.394531 "/>
<path style=" stroke:none;fill-rule:nonzero;fill:rgb(100%,100%,100%);fill-opacity:1;" d="M 196.757812 175.875 L 203.757812 175.875 L 203.757812 186.875 L 196.757812 186.875 Z M 196.757812 175.875 "/>
<g style="fill:rgb(0%,0%,100%);fill-opacity:1;">
  <use xlink:href="#glyph0-2" x="196.757812" y="184.538086"/>
</g>
<path style="fill:none;stroke-width:1.2;stroke-linecap:butt;stroke-linejoin:miter;stroke:rgb(0%,0%,0%);stroke-opacity:1;stroke-miterlimit:10;" d="M 180.292969 167.59375 L 158.628906 177.558594 "/>
<path style="fill:none;stroke-width:1.2;stroke-linecap:butt;stroke-linejoin:miter;stroke:rgb(0%,0%,0%);stroke-opacity:1;stroke-miterlimit:10;" d="M 158.628906 177.558594 L 139.167969 163.78125 "/>
<path style="fill:none;stroke-width:1.2;stroke-linecap:butt;stroke-linejoin:miter;stroke:rgb(0%,0%,0%);stroke-opacity:1;stroke-miterlimit:10;" d="M 153.441406 180.761719 L 137.871094 169.738281 "/>
<path style="fill:none;stroke-width:1.2;stroke-linecap:butt;stroke-linejoin:miter;stroke:rgb(0%,0%,0%);stroke-opacity:1;stroke-miterlimit:10;" d="M 156.425781 201.304688 L 158.628906 177.558594 "/>
<path style="fill:none;stroke-width:1.2;stroke-linecap:butt;stroke-linejoin:miter;stroke:rgb(0%,0%,0%);stroke-opacity:1;stroke-miterlimit:10;" d="M 139.167969 163.78125 L 117.503906 173.746094 "/>
<path style="fill:none;stroke-width:1.2;stroke-linecap:butt;stroke-linejoin:miter;stroke:rgb(0%,0%,0%);stroke-opacity:1;stroke-miterlimit:10;" d="M 117.503906 173.746094 L 116.402344 185.617188 "/>
<path style="fill:none;stroke-width:1.2;stroke-linecap:butt;stroke-linejoin:miter;stroke:rgb(0%,0%,100%);stroke-opacity:1;stroke-miterlimit:10;" d="M 116.402344 185.617188 L 115.300781 197.488281 "/>
<path style="fill:none;stroke-width:1.2;stroke-linecap:butt;stroke-linejoin:miter;stroke:rgb(0%,0%,0%);stroke-opacity:1;stroke-miterlimit:10;" d="M 122.871094 176.636719 L 121.988281 186.136719 "/>
<path style="fill:none;stroke-width:1.2;stroke-linecap:butt;stroke-linejoin:miter;stroke:rgb(0%,0%,100%);stroke-opacity:1;stroke-miterlimit:10;" d="M 121.988281 186.136719 L 121.109375 195.632812 "/>
<path style="fill:none;stroke-width:1.2;stroke-linecap:butt;stroke-linejoin:miter;stroke:rgb(0%,0%,0%);stroke-opacity:1;stroke-miterlimit:10;" d="M 117.503906 173.746094 L 107.773438 166.855469 "/>
<path style="fill:none;stroke-width:1.2;stroke-linecap:butt;stroke-linejoin:miter;stroke:rgb(0%,0%,100%);stroke-opacity:1;stroke-miterlimit:10;" d="M 107.773438 166.855469 L 98.042969 159.964844 "/>
<path style="fill:none;stroke-width:1.2;stroke-linecap:butt;stroke-linejoin:miter;stroke:rgb(0%,0%,100%);stroke-opacity:1;stroke-miterlimit:10;" d="M 115.300781 197.488281 L 125.03125 204.378906 "/>
<path style="fill:none;stroke-width:1.2;stroke-linecap:butt;stroke-linejoin:miter;stroke:rgb(0%,0%,0%);stroke-opacity:1;stroke-miterlimit:10;" d="M 125.03125 204.378906 L 134.761719 211.269531 "/>
<path style=" stroke:none;fill-rule:nonzero;fill:rgb(100%,100%,100%);fill-opacity:1;" d="M 112.300781 191.988281 L 119.300781 191.988281 L 119.300781 202.988281 L 112.300781 202.988281 Z M 112.300781 191.988281 "/>
<g style="fill:rgb(0%,0%,100%);fill-opacity:1;">
  <use xlink:href="#glyph0-2" x="112.300781" y="200.651367"/>
</g>
<path style="fill:none;stroke-width:1.2;stroke-linecap:butt;stroke-linejoin:miter;stroke:rgb(0%,0%,0%);stroke-opacity:1;stroke-miterlimit:10;" d="M 134.761719 211.269531 L 156.425781 201.304688 "/>
<path style="fill:none;stroke-width:1.2;stroke-linecap:butt;stroke-linejoin:miter;stroke:rgb(0%,0%,0%);stroke-opacity:1;stroke-miterlimit:10;" d="M 134.585938 205.175781 L 151.914062 197.203125 "/>
<path style="fill:none;stroke-width:1.2;stroke-linecap:butt;stroke-linejoin:miter;stroke:rgb(0%,0%,100%);stroke-opacity:1;stroke-miterlimit:10;" d="M 98.042969 159.964844 L 87.207031 164.945312 "/>
<path style="fill:none;stroke-width:1.2;stroke-linecap:butt;stroke-linejoin:miter;stroke:rgb(0%,0%,0%);stroke-opacity:1;stroke-miterlimit:10;" d="M 87.207031 164.945312 L 76.375 169.929688 "/>
<path style=" stroke:none;fill-rule:nonzero;fill:rgb(100%,100%,100%);fill-opacity:1;" d="M 91.042969 154.464844 L 105.042969 154.464844 L 105.042969 165.464844 L 91.042969 165.464844 Z M 91.042969 154.464844 "/>
<g style="fill:rgb(0%,0%,100%);fill-opacity:1;">
  <use xlink:href="#glyph0-2" x="91.042969" y="163.12793"/>
  <use xlink:href="#glyph0-3" x="98.020508" y="163.12793"/>
</g>
<path style="fill:none;stroke-width:1.2;stroke-linecap:butt;stroke-linejoin:miter;stroke:rgb(0%,0%,0%);stroke-opacity:1;stroke-miterlimit:10;" d="M 76.375 169.929688 L 56.914062 156.148438 "/>
<path style="fill:none;stroke-width:1.2;stroke-linecap:butt;stroke-linejoin:miter;stroke:rgb(0%,0%,0%);stroke-opacity:1;stroke-miterlimit:10;" d="M 76.375 169.929688 L 74.171875 193.671875 "/>
<path style="fill:none;stroke-width:1.2;stroke-linecap:butt;stroke-linejoin:miter;stroke:rgb(0%,0%,0%);stroke-opacity:1;stroke-miterlimit:10;" d="M 56.914062 156.148438 L 35.25 166.113281 "/>
<path style="fill:none;stroke-width:1.2;stroke-linecap:butt;stroke-linejoin:miter;stroke:rgb(0%,0%,0%);stroke-opacity:1;stroke-miterlimit:10;" d="M 240.882812 185.191406 L 262.546875 175.226562 "/>
<path style="fill:none;stroke-width:1.2;stroke-linecap:butt;stroke-linejoin:miter;stroke:rgb(0%,0%,0%);stroke-opacity:1;stroke-miterlimit:10;" d="M 240.703125 179.097656 L 258.035156 171.125 "/>
<path style="fill:none;stroke-width:1.2;stroke-linecap:butt;stroke-linejoin:miter;stroke:rgb(0%,0%,0%);stroke-opacity:1;stroke-miterlimit:10;" d="M 262.546875 175.226562 L 264.75 151.480469 "/>
<path style="fill:none;stroke-width:1.2;stroke-linecap:butt;stroke-linejoin:miter;stroke:rgb(0%,0%,0%);stroke-opacity:1;stroke-miterlimit:10;" d="M 264.75 151.480469 L 245.289062 137.703125 "/>
<path style="fill:none;stroke-width:1.2;stroke-linecap:butt;stroke-linejoin:miter;stroke:rgb(0%,0%,0%);stroke-opacity:1;stroke-miterlimit:10;" d="M 259.5625 154.683594 L 243.992188 143.660156 "/>
</g>
</svg>

<svg xmlns="http://www.w3.org/2000/svg" xmlns:xlink="http://www.w3.org/1999/xlink" width="300pt" height="300pt" viewBox="0 0 300 300"><defs><symbol overflow="visible"><path d="M.453 1.594v-7.938h4.5v7.938zm.5-.5h3.5v-6.938h-3.5zm0 0"/></symbol><symbol overflow="visible" id="a"><path d="M.89-6.563h3.766v.75h-2.89v1.938h2.61v.734h-2.61V0H.89zm0 0"/></symbol><symbol overflow="visible" id="b"><path d="M.89-6.563H2.08l2.906 5.485v-5.484h.86V0H4.656L1.75-5.484V0H.89zm0 0"/></symbol><symbol overflow="visible" id="c"><path d="M.89-6.563h.876v2.688H5v-2.688h.89V0H5v-3.125H1.766V0H.89zm0 0"/></symbol></defs><g><path fill="#fff" d="M0 0h300v300H0z"/><path d="M104.648 88.73l9.73 6.89" stroke-width="1.2" stroke="#3cc" stroke-miterlimit="10" fill="none"/><path d="M114.38 95.62l9.733 6.892" stroke-width="1.2" stroke="#000" stroke-miterlimit="10" fill="none"/><path d="M98.648 83.23h6v11h-6zm0 0" fill="#fff"/><use xlink:href="#a" x="98.648" y="91.894" fill="#3cc"/><path d="M124.113 102.512l21.664-9.965M128.62 106.613l17.333-7.972M121.91 126.254l2.203-23.742M145.777 92.547l19.46 13.78M165.238 106.328l-2.203 23.742M159.43 108.184l-1.762 18.996M163.035 130.07l-21.664 9.965M163.035 130.07l19.46 13.782M141.37 140.035l-19.46-13.78M142.668 134.078l-15.57-11.023M182.496 143.852l10.832-4.985" stroke-width="1.2" stroke="#000" stroke-miterlimit="10" fill="none"/><path d="M193.328 138.867l10.832-4.98" stroke-width="1.2" stroke="#00f" stroke-miterlimit="10" fill="none"/><path d="M187.008 147.953l8.668-3.988" stroke-width="1.2" stroke="#000" stroke-miterlimit="10" fill="none"/><path d="M195.676 143.965l8.664-3.985" stroke-width="1.2" stroke="#00f" stroke-miterlimit="10" fill="none"/><path d="M180.293 167.594l2.203-23.742" stroke-width="1.2" stroke="#000" stroke-miterlimit="10" fill="none"/><path d="M204.16 133.887l9.73 6.89" stroke-width="1.2" stroke="#00f" stroke-miterlimit="10" fill="none"/><path d="M213.89 140.777l9.735 6.89" stroke-width="1.2" stroke="#000" stroke-miterlimit="10" fill="none"/><path d="M201.16 128.387h7v11h-7zm0 0" fill="#fff"/><use xlink:href="#b" x="201.16" y="137.05" fill="#00f"/><path d="M223.625 147.668l-2.203 23.742M228.988 150.56l-1.76 18.995M245.29 137.703l-21.665 9.965M221.422 171.41l-10.832 4.985" stroke-width="1.2" stroke="#000" stroke-miterlimit="10" fill="none"/><path d="M210.59 176.395l-10.832 4.98" stroke-width="1.2" stroke="#00f" stroke-miterlimit="10" fill="none"/><path d="M221.422 171.41l19.46 13.78" stroke-width="1.2" stroke="#000" stroke-miterlimit="10" fill="none"/><path d="M199.758 181.375l-9.735-6.89" stroke-width="1.2" stroke="#00f" stroke-miterlimit="10" fill="none"/><path d="M190.023 174.484l-9.73-6.89" stroke-width="1.2" stroke="#000" stroke-miterlimit="10" fill="none"/><path d="M201.05 175.418l-7.784-5.512" stroke-width="1.2" stroke="#00f" stroke-miterlimit="10" fill="none"/><path d="M193.266 169.906l-7.782-5.51" stroke-width="1.2" stroke="#000" stroke-miterlimit="10" fill="none"/><path d="M196.758 175.875h7v11h-7zm0 0" fill="#fff"/><use xlink:href="#b" x="196.758" y="184.538" fill="#00f"/><path d="M180.293 167.594l-21.664 9.965M158.63 177.56l-19.462-13.78M153.44 180.762l-15.57-11.024M156.426 201.305l2.203-23.746M139.168 163.78l-21.664 9.966M117.504 173.746l-1.102 11.87" stroke-width="1.2" stroke="#000" stroke-miterlimit="10" fill="none"/><path d="M116.402 185.617l-1.1 11.87" stroke-width="1.2" stroke="#00f" stroke-miterlimit="10" fill="none"/><path d="M122.87 176.637l-.882 9.5" stroke-width="1.2" stroke="#000" stroke-miterlimit="10" fill="none"/><path d="M121.988 186.137l-.88 9.496" stroke-width="1.2" stroke="#00f" stroke-miterlimit="10" fill="none"/><path d="M117.504 173.746l-9.73-6.89" stroke-width="1.2" stroke="#000" stroke-miterlimit="10" fill="none"/><path d="M107.773 166.855l-9.73-6.89M115.3 197.488l9.73 6.89" stroke-width="1.2" stroke="#00f" stroke-miterlimit="10" fill="none"/><path d="M125.03 204.38l9.732 6.89" stroke-width="1.2" stroke="#000" stroke-miterlimit="10" fill="none"/><path d="M112.3 191.988h7v11h-7zm0 0" fill="#fff"/><use xlink:href="#b" x="112.301" y="200.651" fill="#00f"/><path d="M134.762 211.27l21.664-9.965M134.586 205.176l17.328-7.973" stroke-width="1.2" stroke="#000" stroke-miterlimit="10" fill="none"/><path d="M98.043 159.965l-10.836 4.98" stroke-width="1.2" stroke="#00f" stroke-miterlimit="10" fill="none"/><path d="M87.207 164.945l-10.832 4.985" stroke-width="1.2" stroke="#000" stroke-miterlimit="10" fill="none"/><path d="M91.043 154.465h14v11h-14zm0 0" fill="#fff"/><g fill="#00f"><use xlink:href="#b" x="91.043" y="163.128"/><use xlink:href="#c" x="98.021" y="163.128"/></g><path d="M76.375 169.93l-19.46-13.782M76.375 169.93l-2.203 23.742M56.914 156.148l-21.664 9.965M240.883 185.19l21.664-9.963M240.703 179.098l17.332-7.973M262.547 175.227l2.203-23.747M264.75 151.48l-19.46-13.777M259.563 154.684l-15.57-11.024" stroke-width="1.2" stroke="#000" stroke-miterlimit="10" fill="none"/></g></svg>
